X:1
L:1/8
Q:1/4=120
M:2/2
K:A
""^Lively, but not too fast."" E2 | A A2 B c2 B>A | d2 c>B e2 z a | e2 dc{e} d2 c<B | A2 z B e2 ^dc | 
 B2 AG ABc^d | e2 ^dc B2 AG |{B} A2 G>F G2 z B | e B2 A G2 AF | E2 z2 z3 B | e2 dc f c2 d | 
 (cB)AG F2 z G | (Ace>)c (fe)dc | (cB) z2 z2 B>B | c2 B>A eE z e | (fd)BA AGFE | A2 B>c d2 c>B | 
 e2 z2""^ad lib."" AEcA | ec z2 z2 a2 |""^Tempo."" e2 dc{e} d2 cB | A2 z2 z2 |]
